resources/svg/box-o.svg

<svg xmlns="http://www.w3.org/2000/svg" viewBox="0 0 15 15" fill="none"><path d="M0.5 3.49805L7.5 0.5L14.5 3.49805M0.5 3.49805L7.5 6.49609M0.5 3.49805V3.5M14.5 3.49805L7.5 6.49609M14.5 3.49805V11.5L7.5 14.5M14.5 3.49805L7.5 6.5V14.5M7.5 6.49609V14.5M7.5 6.49609L0.5 3.5M7.5 14.5L0.5 11.5V3.5" stroke="black" stroke-linejoin="round"/></svg>

<svg xmlns="http://www.w3.org/2000/svg" viewBox="0 0 15 15" fill="none"><path d="M.5 3.498L7.5.5l7 2.998m-14 0l7 2.998m-7-2.998V3.5m14-.002l-7 2.998m7-2.998V11.5l-7 3m7-11.002L7.5 6.5v8m0-8.004V14.5m0-8.004L.5 3.5m7 11l-7-3v-8" stroke="currentColor" stroke-linejoin="round"/></svg>
